X:1
T:A minor Jacob French, 1802
T:Isaac Watts, 1719 (Psalm 39, Part 2)   86. 86. (C. M.)
T:Vanity
T:Transcribed from Harmony of Harmony, 1802
%%score [ 1 2 3 4 ]
L:1/8
Q:1/4=90
M:2/4
K:C
V:1 treble nm="Voice" snm="Tr."
V:2 treble nm="Voice" snm="C."
V:3 treble-8 nm="Tenor" snm="T."
V:4 bass nm="Bass" snm="B."
V:1
 A2 | (A c2) A | (d B2) d | (e c2) A | ^G3 A | ^GA Bc | EF GG | A3 c |: (e c2) B | (A e2) c | %10
w: 1.~Teach|me * the|mea- * sure|of * my|days, Thou|Ma- * * ker|of * * my|frame; I|would * sur-|vey * life's|
w: 2.~A|span * is|all * that|we * can|boast, An|inch * * or|two * * of|time; Man|is * but|va- * ni-|
 Bc d2 | e3 f | ed cA | ^GA B2 |1 A3 c :|2 A4- || A4 |] %17
w: nar- * row|space, And|learn * * how|frail * I|am. I|||
w: ty * and|dust, In|all * * his|flower * and|prime. Man|||
V:2
 E2 | (E A2) E | G3 G | E3 E | E3 E | E3 E | C3 D | C3 E |: (C E2) E | (E A2) A | GE GA | G3 D | %12
w: 3.~See|the * vain|race of|mor- tals|move Like|sha- dows|o'er the|plain; They|rage * and|strive, * de-|sire * and *|love, But|
w: 4.~Some|walk * in|hon- or's|gau- dy|show, Some|dig for|gol- den|ore; They|toil * for|heirs, * they|know * not *|who, And|
 EF EE | E2 E2 |1 E3 E :|2 E4- || E4 |] %17
w: all * * the|noise is|vain. They|||
w: straight * * are|seen no|more. They|||
V:3
 A2 | (c e2) c | (B d2) B | (c A2) c | B3 c | BA BA | GF ED | E3 A |: (E A2) B | c3 e | dc BA | %11
w: 5.~What|should * I|wish * or|wait * for,|then, From|crea- * * tures|earth * * and|dust? They|make * our|ex- pec-|ta- * tions *|
w: 6.~Now|I * for-|bid * my|car- * nal|hope, My|fond * * de-|sires * * re-|call; I|give * my|mor- tal|in- * terest *|
 B3 B | cd ec | BA G2 |1 A3 A :|2 A4- || A4 |] %17
w: vain, And|dis- * * ap-|point * our|trust. They|||
w: up, And|make * * my|God * my|all. I|||
V:4
 A,2 | A,3 A, | G,3 G, | A,3 A, | E,3 A, | E,3 A,, | C,3 B,, | A,,3 A,, |: (E, A,,2) E, | A,3 A, | %10
 B,A, G,F, | E,3 D, | C,B,,A,,/B,,/ C,/D,/ | E,2 E,2 |1 A,,3 A,, :|2 A,,4- || A,,4 |] %17

